X: 36824
T: Shifting Peat And Feet
R: jig
M: 6/8
K: Adorian
|:a/g/|edB BAG|AAA AGE|E/F/GA AGE|G2A GED|
edB BAG|A2B AGE|E/F/GA AGE|1 GGG G2:|2 GGG G3||
|:deg geg|a2b age|e/f/ga age|g2a ged|
deg geg|a2b age|edB BAG|BAA A3:|

